X:876
T:Tinker's Stick
R:reel
D:Matt Molloy: Stony Steps
Z:id:hn-reel-876
M:C|
L:1/8
K:G
~B3G AEGE | DGBG AGED | ~B3A ~G3B | dBAd BG~G2 :|
|: ~g3f g2dg | egdg egd2 | ~g3f gedg |1 ea~a2 afef :|2 ea~a2 aged ||

